icons/outline/circle-dashed-x.svg

<!--
category: Shapes
tags: [cancel, multiply, close, cross, deny, exit, remove, reject, eliminate, terminate]
version: "2.33"
unicode: "fc75"
-->
<svg
  xmlns="http://www.w3.org/2000/svg"
  width="24"
  height="24"
  viewBox="0 0 24 24"
  fill="none"
  stroke="currentColor"
  stroke-width="2"
  stroke-linecap="round"
  stroke-linejoin="round"
>
  <path d="M8.56 3.69a9 9 0 0 0 -2.92 1.95m-1.95 2.92a9 9 0 0 0 -.69 3.44m.69 3.44a9 9 0 0 0 1.95 2.92m2.92 1.95a9 9 0 0 0 3.44 .69m3.44 -.69a9 9 0 0 0 2.92 -1.95m1.95 -2.92a9 9 0 0 0 .69 -3.44m-.69 -3.44a9 9 0 0 0 -1.95 -2.92m-2.92 -1.95a9 9 0 0 0 -3.44 -.69m2 11l-4 -4m0 4l4 -4" />
</svg>

<!--
category: Shapes
tags: [cancel, multiply, close, cross, deny, exit, remove, reject, eliminate, terminate]
version: "2.33"
unicode: "fc75"
-->
<svg
  xmlns="http://www.w3.org/2000/svg"
  width="24"
  height="24"
  viewBox="0 0 24 24"
  fill="none"
  stroke="currentColor"
  stroke-width="2"
  stroke-linecap="round"
  stroke-linejoin="round"
>
    <path d="M8.56 3.69a9 9 0 0 0 -2.92 1.95M3.69 8.56a9 9 0 0 0 -.69 3.44M3.69 15.44a9 9 0 0 0 1.95 2.92M8.56 20.31a9 9 0 0 0 3.44 .69M15.44 20.31a9 9 0 0 0 2.92 -1.95M20.31 15.44a9 9 0 0 0 .69 -3.44M20.31 8.56a9 9 0 0 0 -1.95 -2.92M15.44 3.69a9 9 0 0 0 -3.44 -.69M14 14l-4 -4M10 14l4 -4" />
</svg>
